src/pos-icons/bug-check.svg

<svg height="24" viewBox="0 0 24 24" width="24" xmlns="http://www.w3.org/2000/svg"><path d="m18 7h-2.81c-.45-.8-1.07-1.5-1.82-2l1.63-1.59-1.41-1.41-2.17 2.17c-.46-.11-.92-.17-1.42-.17s-.95.06-1.41.17l-2.18-2.17-1.41 1.41 1.62 1.59c-.75.5-1.36 1.21-1.81 2h-2.81v2h2.09c-.06.33-.09.66-.09 1v1h-2v2h2v1c0 .34.03.67.09 1h-2.09v2h2.81c1.45 2.5 4.47 3.61 7.19 2.65 0-.22 0-.43 0-.65 0-2.54 1.61-4.8 4-5.65v-.35h2v-2h-2v-1c0-.34-.03-.67-.09-1h2.09zm-6 8h-4v-2h4zm0-4h-4v-2h4zm5.75 11.16-2.75-3 1.16-1.16 1.59 1.59 3.59-3.59 1.16 1.41z"/></svg>

<?xml version="1.0" encoding="UTF-8"?><!DOCTYPE svg PUBLIC "-//W3C//DTD SVG 1.1//EN" "http://www.w3.org/Graphics/SVG/1.1/DTD/svg11.dtd"><svg xmlns="http://www.w3.org/2000/svg" xmlns:xlink="http://www.w3.org/1999/xlink" version="1.1" id="mdi-bug-check" width="24" height="24" viewBox="0 0 24 24"><path d="M18,7H15.19C14.74,6.2 14.12,5.5 13.37,5L15,3.41L13.59,2L11.42,4.17C10.96,4.06 10.5,4 10,4C9.5,4 9.05,4.06 8.59,4.17L6.41,2L5,3.41L6.62,5C5.87,5.5 5.26,6.21 4.81,7H2V9H4.09C4.03,9.33 4,9.66 4,10V11H2V13H4V14C4,14.34 4.03,14.67 4.09,15H2V17H4.81C6.26,19.5 9.28,20.61 12,19.65C12,19.43 12,19.22 12,19C12,16.46 13.61,14.2 16,13.35V13H18V11H16V10C16,9.66 15.97,9.33 15.91,9H18V7M12,15H8V13H12V15M12,11H8V9H12V11M17.75,22.16L15,19.16L16.16,18L17.75,19.59L21.34,16L22.5,17.41L17.75,22.16Z" /></svg>
